X:13
T:"An Iora"
T:(The Squirrel)
C:Jig composed by Davy Rogers
L:1/8
Q:130
M:6/8
K:D
c |: B2g fdf | eBc dBc | d2c dfd | BGB Adf | geg faf |
ece dAG | Bdg fAB |1 cGc d2c :|2 cGc def |:
g/a/bg f/g/af | dBG Ade | fAf eGe | dFd AEf |
geg fdf | eBG Ade | fAf eGe |1 cGc def :|2 cGc d2 ||



